X: 4304
M: C|
L: 1/8
K: F
|:\
[1,3 efgf edcd | efgf edcB :|\
[2,4 egfe dfed | c2e2 c2z2 |:\
g^fga g2c2 | g^fga bgeg |
=fefg f2c2 | FAcf afcA |\
g^fga g2c2 | g^fga bgeg |\
=fagf edc=B |[1 c2e2 c2z2 :|\
[2 cded cBAG |]


